Hatter-kde-dark/actions/22/format-text-capitalize.svg

<svg xmlns="http://www.w3.org/2000/svg" viewBox="0 0 22 22">
  <defs id="defs3051">
    <style type="text/css" id="current-color-scheme">
      .ColorScheme-Text {
        color:#dedede;
      }
      .ColorScheme-Highlight {
        color:#3daee9;
      }
      </style>
  </defs>
  <g transform="translate(-421.71429,-525.79074)" >
 <path 
    style="fill:currentColor;fill-opacity:1;stroke:none" 
    d="M 5.0351562 7 L 1 19 L 1.9746094 19 L 3.4199219 15 L 8.453125 15 L 9.8945312 19 L 11 19 L 6.9101562 7 L 5.0351562 7 z M 12 7 L 12 15 L 12 19 L 13 19 L 13 17.638672 A 4 4 0 0 0 16 19 A 4 4 0 0 0 20 15 A 4 4 0 0 0 16 11 A 4 4 0 0 0 13 12.361328 L 13 7 L 12 7 z M 5.9433594 8.0292969 L 8.0917969 14 L 3.7832031 14 L 5.9433594 8.0292969 z M 16 12 A 3 3 0 0 1 19 15 A 3 3 0 0 1 16 18 A 3 3 0 0 1 13 15 A 3 3 0 0 1 16 12 z "
    transform="translate(421.71429,525.79074)"
    class="ColorScheme-Text"
    />  
 <path 
    style="fill:currentColor;fill-opacity:1;stroke:none" 
    d="m 424.71429,531.79074 3,-4 3,4 z"
    class="ColorScheme-Highlight"
    />  
 </g>
</svg>

<?xml version="1.0" encoding="UTF-8"?>
<svg viewBox="0 0 22 22" xmlns="http://www.w3.org/2000/svg">
 <defs id="defs3051">
  <style id="current-color-scheme" type="text/css">.ColorScheme-Text {
        color:#dedede;
      }
      .ColorScheme-Highlight {
        color:#3daee9;
      }</style>
 </defs>
 <g transform="translate(-421.71 -525.79)" fill="currentColor">
  <path class="ColorScheme-Text" transform="translate(421.71 525.79)" d="m5.0352 7-4.0352 12h0.97461l1.4453-4h5.0332l1.4414 4h1.1055l-4.0898-12h-1.875zm6.9648 0v8 4h1v-1.3613a4 4 0 0 0 3 1.3613 4 4 0 0 0 4-4 4 4 0 0 0-4-4 4 4 0 0 0-3 1.3613v-5.3613h-1zm-6.0566 1.0293 2.1484 5.9707h-4.3086l2.1602-5.9707zm10.057 3.9707a3 3 0 0 1 3 3 3 3 0 0 1-3 3 3 3 0 0 1-3-3 3 3 0 0 1 3-3z"/>
  <path class="ColorScheme-Highlight" d="m424.71 531.79 3-4 3 4z"/>
 </g>
</svg>
